X: 35
T: No_132_Dream_Song.krn
%%abc-version 2.0
%%abcx-abcm2ps-target-version 5.9.1 (29 Sep 2008)
%%abc-creator hum2abc beta
%%abcx-conversion-date 2020/08/10 18:54:57
%%gracespace 0 6 6
%%humdrum-veritas 2918506775
%%humdrum-veritas-data 161880439
%%linebreak <none>
%%barnumbers 0
L: 1/8
M: 2/4
%%staves {1 2}
V: 1 clef=treble
V: 2 clef=bass
K: Db
[V:1] A2 [I:setbarnb 1]| 
[V:2] z2 | 
[V:1] F2FE | 
[V:2] G,,G,, G,,G,, | 
[V:1] F3F | 
[V:2] G,,G,, G,,G,, | 
[V:1] F2D2 | 
[V:2] z4 | 
[V:1] D<D D3/B,/ | 
[V:2] z4 | 
[V:1] A,4 | 
[V:2] z4 | 
[V:1] FFF2 | 
[V:2] z4 | 
[V:1] DD D3/D/ | 
[V:2] z4 | 
[V:1] D2D3/B,/ | 
[V:2] z4 | 
[V:1] A,3D | 
[V:2] z4 | 
[V:1] D2D3/B,/[K:clef=bass] | 
[V:2] z4 | 
[V:1] A,2B,2 | 
[V:2] z4 | 
[V:1] A,3E, ||  
[V:2] z4 ||  
[V:1] [M:3/4]E,2>A,2A,2 ||  
[V:2] [M:3/4]z6 ||  
[V:1] [M:2/4]F,2F,E, | 
[V:2] [M:2/4]z4 | 
[V:1] F,2E,2 | 
[V:2] z4 | 
[V:1] D,>D,D,2 | 
[V:2] z4 | 
[V:1] D,4 |]  
[V:2] z4 |]  


